X: 1
T: Doreen Lambert
C: Angus Fitchet
R: strathspey
Z: 2009 John Chambers <jc:trillian.mit.edu>
S: printed MS of unknown origin
M: C
L: 1/16
K: G
D \
| "G"G3A Bd3 D3G Bd3 | "Am"c3A BAG2 FA3 A3B \
| "G"G3A Bd3 D3G Bd3 | "C(Am)"e3c "D7"d3c "G"BG3 G3 :|
d \
| "G"b3a g3b "Bm"a3f d3f | "Em"g3f e3g "B"f2^d2 B4 \
| "C"e3d c3e "G"d3c B3d | "Am"c3A BAG2 "D7"FA3 A3 |]
d \
| "G"b3a gab2 "Bm"a3f d3f | "Em"g3f efg2 "B"f2^d2 B4 \
| "C"c3d edc2 | "G"B3d g3d | "Am"e3c "D7"d3c "G"BG3 G3 |]
